static/img/kroki/8ce8141a0cee1bcc6631d1d013f5092c.svg

<?xml version="1.0" encoding="us-ascii" standalone="no"?><svg xmlns="http://www.w3.org/2000/svg" xmlns:xlink="http://www.w3.org/1999/xlink" contentStyleType="text/css" height="374px" preserveAspectRatio="none" style="width:348px;height:374px;" version="1.1" viewBox="0 0 348 374" width="348px" zoomAndPan="magnify"><defs/><g><!--class aws_ec2_network_acl--><g id="elem_aws_ec2_network_acl"><rect codeLine="23" fill="#3D176E" height="39.7891" id="aws_ec2_network_acl" rx="2.5" ry="2.5" style="stroke:#000D19;stroke-width:0.5;" width="224" x="64.5" y="328.58"/><ellipse cx="79.5" cy="348.4745" fill="#ADD1B2" rx="11" ry="11" style="stroke:#181818;stroke-width:1.0;"/><path d="M82.4688,354.1152 Q81.8906,354.412 81.25,354.5527 Q80.6094,354.7089 79.9063,354.7089 Q77.4063,354.7089 76.0781,353.0683 Q74.7656,351.412 74.7656,348.287 Q74.7656,345.162 76.0781,343.5058 Q77.4063,341.8495 79.9063,341.8495 Q80.6094,341.8495 81.25,342.0058 Q81.9063,342.162 82.4688,342.4589 L82.4688,345.1777 Q81.8438,344.5995 81.25,344.3339 Q80.6563,344.0527 80.0313,344.0527 Q78.6875,344.0527 78,345.1308 Q77.3125,346.1933 77.3125,348.287 Q77.3125,350.3808 78,351.4589 Q78.6875,352.5214 80.0313,352.5214 Q80.6563,352.5214 81.25,352.2558 Q81.8438,351.9745 82.4688,351.3964 L82.4688,354.1152 Z " fill="#000000"/><text fill="#D9B8FF" font-family="Helvetica" font-size="17" lengthAdjust="spacing" textLength="182" x="98.5" y="354.3598">aws_ec2_network_acl</text></g><!--class aws_resource--><g id="elem_aws_resource"><rect codeLine="26" fill="#3D176E" height="39.7891" id="aws_resource" rx="2.5" ry="2.5" style="stroke:#000D19;stroke-width:0.5;" width="155" x="7" y="167.79"/><ellipse cx="22" cy="187.6845" fill="#ADD1B2" rx="11" ry="11" style="stroke:#181818;stroke-width:1.0;"/><path d="M24.9688,193.3252 Q24.3906,193.622 23.75,193.7627 Q23.1094,193.9189 22.4063,193.9189 Q19.9063,193.9189 18.5781,192.2783 Q17.2656,190.622 17.2656,187.497 Q17.2656,184.372 18.5781,182.7158 Q19.9063,181.0595 22.4063,181.0595 Q23.1094,181.0595 23.75,181.2158 Q24.4063,181.372 24.9688,181.6689 L24.9688,184.3877 Q24.3438,183.8095 23.75,183.5439 Q23.1563,183.2627 22.5313,183.2627 Q21.1875,183.2627 20.5,184.3408 Q19.8125,185.4033 19.8125,187.497 Q19.8125,189.5908 20.5,190.6689 Q21.1875,191.7314 22.5313,191.7314 Q23.1563,191.7314 23.75,191.4658 Q24.3438,191.1845 24.9688,190.6064 L24.9688,193.3252 Z " fill="#000000"/><text fill="#D9B8FF" font-family="Helvetica" font-size="17" lengthAdjust="spacing" textLength="113" x="41" y="193.5698">aws_resource</text></g><!--class network_acl--><g id="elem_network_acl"><rect codeLine="29" fill="#3D176E" height="39.7891" id="network_acl" rx="2.5" ry="2.5" style="stroke:#000D19;stroke-width:0.5;" width="144" x="197.5" y="167.79"/><ellipse cx="212.5" cy="187.6845" fill="#ADD1B2" rx="11" ry="11" style="stroke:#181818;stroke-width:1.0;"/><path d="M215.4688,193.3252 Q214.8906,193.622 214.25,193.7627 Q213.6094,193.9189 212.9063,193.9189 Q210.4063,193.9189 209.0781,192.2783 Q207.7656,190.622 207.7656,187.497 Q207.7656,184.372 209.0781,182.7158 Q210.4063,181.0595 212.9063,181.0595 Q213.6094,181.0595 214.25,181.2158 Q214.9063,181.372 215.4688,181.6689 L215.4688,184.3877 Q214.8438,183.8095 214.25,183.5439 Q213.6563,183.2627 213.0313,183.2627 Q211.6875,183.2627 211,184.3408 Q210.3125,185.4033 210.3125,187.497 Q210.3125,189.5908 211,190.6689 Q211.6875,191.7314 213.0313,191.7314 Q213.6563,191.7314 214.25,191.4658 Q214.8438,191.1845 215.4688,190.6064 L215.4688,193.3252 Z " fill="#000000"/><text fill="#D9B8FF" font-family="Helvetica" font-size="17" lengthAdjust="spacing" textLength="102" x="231.5" y="193.5698">network_acl</text></g><!--class resource--><g id="elem_resource"><rect codeLine="32" fill="#3D176E" height="39.7891" id="resource" rx="2.5" ry="2.5" style="stroke:#000D19;stroke-width:0.5;" width="113" x="120" y="7"/><ellipse cx="135" cy="26.8945" fill="#ADD1B2" rx="11" ry="11" style="stroke:#181818;stroke-width:1.0;"/><path d="M137.9688,32.5352 Q137.3906,32.832 136.75,32.9727 Q136.1094,33.1289 135.4063,33.1289 Q132.9063,33.1289 131.5781,31.4883 Q130.2656,29.832 130.2656,26.707 Q130.2656,23.582 131.5781,21.9258 Q132.9063,20.2695 135.4063,20.2695 Q136.1094,20.2695 136.75,20.4258 Q137.4063,20.582 137.9688,20.8789 L137.9688,23.5977 Q137.3438,23.0195 136.75,22.7539 Q136.1563,22.4727 135.5313,22.4727 Q134.1875,22.4727 133.5,23.5508 Q132.8125,24.6133 132.8125,26.707 Q132.8125,28.8008 133.5,29.8789 Q134.1875,30.9414 135.5313,30.9414 Q136.1563,30.9414 136.75,30.6758 Q137.3438,30.3945 137.9688,29.8164 L137.9688,32.5352 Z " fill="#000000"/><text fill="#D9B8FF" font-family="Helvetica" font-size="17" lengthAdjust="spacing" textLength="71" x="154" y="32.7798">resource</text></g><!--reverse link aws_resource to aws_ec2_network_acl--><g id="link_aws_resource_aws_ec2_network_acl"><path codeLine="35" d="M104.6227,223.4153 C122.3027,253.9353 147.66,297.69 165.36,328.25 " fill="none" id="aws_resource-backto-aws_ec2_network_acl" style="stroke:#FFAF37;stroke-width:2.0;"/><polygon fill="none" points="95.6,207.84,99.4309,226.4229,109.8145,220.4078,95.6,207.84" style="stroke:#FFAF37;stroke-width:2.0;"/></g><!--reverse link network_acl to aws_ec2_network_acl--><g id="link_network_acl_aws_ec2_network_acl"><path codeLine="36" d="M249.185,223.3732 C231.315,253.8932 205.66,297.69 187.76,328.25 " fill="none" id="network_acl-backto-aws_ec2_network_acl" style="stroke:#FFAF37;stroke-width:2.0;"/><polygon fill="none" points="258.28,207.84,244.0073,220.3416,254.3628,226.4049,258.28,207.84" style="stroke:#FFAF37;stroke-width:2.0;"/></g><!--reverse link resource to aws_resource--><g id="link_resource_aws_resource"><path codeLine="37" d="M156.3773,62.6253 C138.6973,93.1453 113.34,136.9 95.64,167.46 " fill="none" id="resource-backto-aws_resource" style="stroke:#FFAF37;stroke-width:2.0;"/><polygon fill="none" points="165.4,47.05,151.1855,59.6178,161.5691,65.6329,165.4,47.05" style="stroke:#FFAF37;stroke-width:2.0;"/></g><!--reverse link resource to network_acl--><g id="link_resource_network_acl"><path codeLine="38" d="M196.815,62.5832 C214.685,93.1032 240.34,136.9 258.24,167.46 " fill="none" id="resource-backto-network_acl" style="stroke:#FFAF37;stroke-width:2.0;"/><polygon fill="none" points="187.72,47.05,191.6372,65.6149,201.9927,59.5516,187.72,47.05" style="stroke:#FFAF37;stroke-width:2.0;"/></g><!--SRC=[XP3DRi8m48JlUGfBd2Cbe1QGUg6HglQ2gj9xjB7Nn4fYHslJYFwyUqifbN4IkCvyEpkxfHB8i6dTdZNO54WsifNIBH0qR4LakipKXjX4If2pUMW-6Esk0cjea3rY_OPESGY9rrBnIgErREfPzy2hBPcT5iTuHw3jZuNQULHMWxKhvqWLEuTU6R4i5bA6P1WwcObqVeizp910-aEI917fCaIkhhfuzp-nKU_8KlzfQ-EmLxEtufUwsF90U2LxXvxyqOxF88JIMtRZQI_7JgIHplHD2S9q1rf2RVqrrY6XSViMizvLk5m8EH-4dyRWY1zUnw2pEV9fhj5rXgeSUCq-ekZBimcjsH57Nn_1pz6puRlFE8w7raL-rZWr47IIGiyV-mO0]--></g></svg>

<svg xmlns="http://www.w3.org/2000/svg" width="348" height="374" viewBox="0 0 348 374"><rect width="224" height="39.789" x="64.5" y="328.58" fill="#3D176E" rx="2.5" ry="2.5" style="stroke:#000d19;stroke-width:.5"/><circle cx="79.5" cy="348.474" r="11" fill="#ADD1B2" style="stroke:#181818;stroke-width:1"/><path d="M82.469 354.115q-.578.297-1.219.438-.64.156-1.344.156-2.5 0-3.828-1.64-1.312-1.657-1.312-4.782t1.312-4.781q1.328-1.656 3.828-1.656.703 0 1.344.156.656.156 1.219.453v2.719q-.625-.579-1.219-.844-.594-.281-1.219-.281-1.344 0-2.031 1.078-.687 1.062-.687 3.156t.687 3.172q.688 1.062 2.031 1.062.625 0 1.219-.265.594-.281 1.219-.86z"/><text x="98.5" y="354.36" fill="#D9B8FF" font-family="Helvetica" font-size="17" textLength="182">aws_ec2_network_acl</text><rect width="155" height="39.789" x="7" y="167.79" fill="#3D176E" rx="2.5" ry="2.5" style="stroke:#000d19;stroke-width:.5"/><circle cx="22" cy="187.685" r="11" fill="#ADD1B2" style="stroke:#181818;stroke-width:1"/><path d="M24.969 193.325q-.578.297-1.219.438-.64.156-1.344.156-2.5 0-3.828-1.64-1.312-1.657-1.312-4.782t1.312-4.781q1.328-1.656 3.828-1.656.703 0 1.344.156.656.156 1.219.453v2.719q-.625-.578-1.219-.844-.594-.281-1.219-.281-1.343 0-2.031 1.078-.687 1.062-.687 3.156t.687 3.172q.688 1.062 2.031 1.062.625 0 1.219-.265.594-.281 1.219-.86z"/><text x="41" y="193.57" fill="#D9B8FF" font-family="Helvetica" font-size="17" textLength="113">aws_resource</text><rect width="144" height="39.789" x="197.5" y="167.79" fill="#3D176E" rx="2.5" ry="2.5" style="stroke:#000d19;stroke-width:.5"/><circle cx="212.5" cy="187.685" r="11" fill="#ADD1B2" style="stroke:#181818;stroke-width:1"/><path d="M215.469 193.325q-.578.297-1.219.438-.64.156-1.344.156-2.5 0-3.828-1.64-1.312-1.657-1.312-4.782t1.312-4.781q1.328-1.656 3.828-1.656.703 0 1.344.156.656.156 1.219.453v2.719q-.625-.578-1.219-.844-.594-.281-1.219-.281-1.344 0-2.031 1.078-.687 1.062-.687 3.156t.687 3.172q.688 1.062 2.031 1.062.625 0 1.219-.265.594-.281 1.219-.86z"/><text x="231.5" y="193.57" fill="#D9B8FF" font-family="Helvetica" font-size="17" textLength="102">network_acl</text><rect width="113" height="39.789" x="120" y="7" fill="#3D176E" rx="2.5" ry="2.5" style="stroke:#000d19;stroke-width:.5"/><circle cx="135" cy="26.895" r="11" fill="#ADD1B2" style="stroke:#181818;stroke-width:1"/><path d="M137.969 32.535q-.578.297-1.219.438-.64.156-1.344.156-2.5 0-3.828-1.64-1.312-1.657-1.312-4.782t1.312-4.781q1.328-1.656 3.828-1.656.703 0 1.344.156.656.156 1.219.453v2.719q-.625-.578-1.219-.844-.594-.281-1.219-.281-1.344 0-2.031 1.078-.687 1.062-.687 3.156t.687 3.172q.688 1.062 2.031 1.062.625 0 1.219-.265.594-.281 1.219-.86z"/><text x="154" y="32.78" fill="#D9B8FF" font-family="Helvetica" font-size="17" textLength="71">resource</text><path fill="none" d="M104.623 223.415c17.68 30.52 43.037 74.275 60.737 104.835M95.6 207.84l3.83 18.583 10.384-6.015z" style="stroke:#ffaf37;stroke-width:2"/><g fill="none"><path d="M249.185 223.373c-17.87 30.52-43.525 74.317-61.425 104.877" style="stroke:#ffaf37;stroke-width:2"/><path d="m258.28 207.84-14.273 12.502 10.356 6.063z" style="stroke:#ffaf37;stroke-width:2"/></g><g fill="none"><path d="M156.377 62.625C138.697 93.145 113.34 136.9 95.64 167.46" style="stroke:#ffaf37;stroke-width:2"/><path d="m165.4 47.05-14.215 12.568 10.384 6.015z" style="stroke:#ffaf37;stroke-width:2"/></g><g fill="none"><path d="M196.815 62.583c17.87 30.52 43.525 74.317 61.425 104.877" style="stroke:#ffaf37;stroke-width:2"/><path d="m187.72 47.05 3.917 18.565 10.356-6.063z" style="stroke:#ffaf37;stroke-width:2"/></g></svg>
